X: 1
T: By Way Of The Dow
M: 6/8
L: 1/8
R: jig
K: Dmaj
|: a | baf dcd | Bdd Add | Bdd Ade | f/g/af efa |
baf dcd | Bdd Add | Bdd Ade | fge d2 :|
|: B | Add fdd | Bd/d/d gdd | Add cde |
[1 f/g/af ecB | Add Fdd | Bdd Gdd | Add cde | fge d2 :|
[2 f/g/af e2 a | baf dcd | Bdd Add | Gd/d/d Fdd | ecA d2 |]
